X: 248
T: the New Langolee
B: O'Neill's 248
N: "With expression"
Z: 1997 by John Chambers <jc@trillian.mit.edu>
M: 6/8
L: 1/8
K:G
D/D/ \
|DEF GAB|ced cBA|BGE DEG|BcA G2D|
|DEF GAB|ced cBA|BGE DEG|BdcA G2||
||c/c/ \
|BGB dBd|edc dBG|GBd efg|GAG GED/D/|
|cec BdB|AGA BGE/E/|GFE Ddc|BcA G2||
